X:1
T:Will Ye Go To Flanders?
M:4/4
L:1/8
K:C
 G3/2 A/2 GE A2 c2| G/2- E3/2 D3/2 C/2 C2 z2| c3/2 B/2 cd B2A-G| A3/2- c/2A/2-G/2 E G2A-B|\
 cB cdc-B AG| Ac G/2 E3/2 G2A-B| c3/2 B/2 AGA-B c/2- A3/2| G/2- E3/2 D3/2 C/2 C4|\


